X:1
T:O Holy Night
T:Adolphe Adam (1803-1856)
T:O Holy Night
T:Public Domain
C:Adolphe Adam (1803-1856)
Z:Public Domain
%%score 1 { ( 2 5 ) | ( 3 4 ) }
L:1/8
Q:1/4=63
M:none
K:D
V:1 treble nm="Flute"
V:2 treble nm="Organ"
V:5 treble 
V:3 bass 
V:4 bass 
V:1
 F2 F>F | A2 A>A B>BG>B | d4 A>AF>E | D2 F>G A2 G>E | D4 F2 F>F | A2 A>A B>BG>B | d4 A>A^G>F | %7
 c2 A>B Mc2 d>c | F6 z A | A2 B2 E2 A2 | MB>Ad>F B2 A>a | a2 b2 e2 a2 | b>ad'>f a4 | defd Bdcf/B/ | %14
 Acf^g agfc | eBef gabc' | d'bd'e' d'2 dF | f4 e3 A | d4 d2 c>B | A4 A>AB>A | A6 d'2 | e'6 z a | %22
 f'6 e'2 | d'4 c'2 d>e |[Q:1/4=55] (3:2:6d'dAfdA (3:2:9FdA[Q:1/4=50] (6:6:6d/e/f/g/a/b/ | Ta6 E2 | %26
 a4 agfe | d4[Q:1/4=40] Mc2 d>e | d8 |] %29
V:2
 z4 | z8 | z8 | z8 | z2 (3z DA, (3F,DA, (3FDA, | (3:2:6F,DA,FDA, (3:2:6G,DB,GDB, | %6
 (3:2:6F,DA,FDA, (3:2:6F,^B,A,FB,A, | (3:2:6F,CA,FCA, (3:2:6^G,CB,^ECB, | %8
 (3:2:6F,CA,FCA, (3:2:6F,CA,FCA, | (3:2:6G,CA,ECA, (3:2:6G,CA,ECA, | %10
 (3:2:6F,DA,FDA, (3:2:6F,DA,FDA, | (3:2:6G,CA,ECA, (3:2:6G,CA,ECA, | %12
 (3:2:6F,DA,FDA, (3:2:6F,DA,FDA, | d6 c>B | c6 cc | z4 e>BB>B | d4 d2 dF | [Af]4 [Ae]3 A | %18
 [Ad]4 [Bd]2 [Ac]>[GB] | [FA]4 [CGA]>[CGA][CGB]>[CGA] | [DFA]6 [FAd]2 | [EAce]4 [EGce]3 [A,CEA] | %22
 [FA]4 [FB]2 [EB]2 | [DFAd]4 [EGAc]2 [EGAd]>[EGce] | [DFAd]8 | z4 z2 [CE]2 | d4 d2 d2 | %27
 [Fd]4 [Ec]2 [Ad]2 | [FAd]8 |] %29
V:3
 z4 | z8 | [D,,A,,D,]4 [F,,D,]4 | [A,,,A,,]8 | [D,,A,,D,]8 | [D,,A,,D,]4 [G,,D,]4 | %6
 [D,,A,,D,]4 [D,,D,]4 | [C,,C,]4 [C,,C,]4 | F,,4 z4 | C,2 A,,2 C,2 A,,2 | D,2 A,,2 D,2 A,,2 | %11
 C,2 A,,2 C,2 A,,2 | D,2 A,,2 [D,,A,,]2 z2 | [B,D]6 E>D | [F,C]6- [F,C][F,A,] | B,6 G,2 | %16
 [B,,F,]6 [B,D]2 | [A,D]4 [G,C]3 [G,C] | [F,D]4 [G,D]2 [G,D]2 | [A,D]4 A,,4 | %20
 [D,D]2 [C,C]2 [B,,B,]2 [A,,A,]2 | [A,,A,]4 [G,,G,]4 | [F,,F,]4 [G,,G,]4 | %23
 [A,,A,]2 [A,,,A,,]2 [A,,,A,,]2 [A,,A,]2 | [D,,A,,D,]8 | [C,C]2 [B,,B,]2 [A,,A,]2 [G,,G,]2 | %26
 [F,,F,]4 [G,,G,]2 [G,,G,]2 | [A,,A,]4 [A,,A,]2 [A,,,A,,]2 | [D,,D,]8 |] %29
V:4
 x4 | x8 | x8 | x8 | x8 | x8 | x8 | x8 | x8 | C,,8 | D,,8 | C,,8 | D,,4 x4 | x6 B,2 | x8 | E,8 | %16
 x8 | x8 | x8 | x8 | x8 | x8 | x8 | x8 | x8 | x8 | x8 | x8 | x8 |] %29
V:5
 x4 | x8 | x8 | x8 | x8 | x8 | x8 | x8 | x8 | x8 | x8 | x8 | x8 | F6 F2 | A8 | [Ge-]4 B,2 E2 | %16
 D6 D2 | x8 | x8 | x8 | x8 | x8 | f6 e2 | x8 | x8 | x8 | x8 | x8 | x8 |] %29

